assets/icons/log/out.svg

<?xml version="1.0" encoding="UTF-8" standalone="no"?>
<svg viewBox="0 0 24 24" height="24" id="svg7384" version="1.1" width="24" sodipodi:docname="out.svg" inkscape:version="1.1 (ce6663b3b7, 2021-05-25)"
   xmlns:inkscape="http://www.inkscape.org/namespaces/inkscape"
   xmlns:sodipodi="http://sodipodi.sourceforge.net/DTD/sodipodi-0.dtd"
   xmlns="http://www.w3.org/2000/svg"
   xmlns:svg="http://www.w3.org/2000/svg"
   xmlns:rdf="http://www.w3.org/1999/02/22-rdf-syntax-ns#"
   xmlns:cc="http://creativecommons.org/ns#"
   xmlns:dc="http://purl.org/dc/elements/1.1/">
   <sodipodi:namedview id="namedview22" pagecolor="#ffffff" bordercolor="#666666" borderopacity="1.0" inkscape:pageshadow="2" inkscape:pageopacity="0.0" inkscape:pagecheckerboard="0" showgrid="true" inkscape:snap-page="true" inkscape:zoom="7.0000001" inkscape:cx="-38.071428" inkscape:cy="22.357143" inkscape:window-width="1920" inkscape:window-height="1016" inkscape:window-x="0" inkscape:window-y="27" inkscape:window-maximized="1" inkscape:current-layer="svg7384">
      <inkscape:grid type="xygrid" id="grid1023" />
   </sodipodi:namedview>
   <metadata id="metadata20854">
      <rdf:RDF>
         <cc:Work rdf:about="">
            <dc:format>image/svg+xml</dc:format>
            <dc:type rdf:resource="http://purl.org/dc/dcmitype/StillImage" />
         </cc:Work>
      </rdf:RDF>
   </metadata>
   <defs id="defs7386">
      <linearGradient id="linearGradient5606" inkscape:swatch="solid">
         <stop id="stop5608" offset="0" style="stop-color:#000000;stop-opacity:1;" />
      </linearGradient>
      <linearGradient id="linearGradient4526" inkscape:swatch="solid">
         <stop id="stop4528" offset="0" style="stop-color:#ffffff;stop-opacity:1;" />
      </linearGradient>
      <linearGradient id="linearGradient3600-4" inkscape:swatch="gradient">
         <stop id="stop3602-7" offset="0" style="stop-color:#f4f4f4;stop-opacity:1" />
         <stop id="stop3604-6" offset="1" style="stop-color:#dbdbdb;stop-opacity:1" />
      </linearGradient>
   </defs>
   <g id="layer9" label="status" style="display:inline;stroke-width:0.8" transform="matrix(1.25,0,0,1.25,-414.25021,60.75)" />
   <g id="layer2" style="display:inline;stroke-width:0.8" transform="matrix(1.25,0,0,1.25,-112.99996,-398)" />
   <g id="layer4" style="display:inline;stroke-width:0.8" transform="matrix(1.25,0,0,1.25,-112.99996,-398)" />
   <g id="g1812" style="display:inline;stroke-width:0.8" transform="matrix(1.25,0,0,1.25,-112.99996,-398)" />
   <g id="g6217" style="display:inline;stroke-width:0.8" transform="matrix(1.25,0,0,1.25,-112.99996,-398)" />
   <g id="layer3" style="display:inline;stroke-width:0.8" transform="matrix(1.25,0,0,1.25,-112.99996,-398)" />
   <g id="g1833" style="display:inline;stroke-width:0.8" transform="matrix(1.25,0,0,1.25,-112.99996,-398)" />
   <path id="path2614-6" style="color:#000000;font-style:normal;font-variant:normal;font-weight:normal;font-stretch:normal;font-size:medium;line-height:normal;font-family:sans-serif;font-variant-ligatures:none;font-variant-position:normal;font-variant-caps:normal;font-variant-numeric:normal;font-variant-alternates:normal;font-feature-settings:normal;text-indent:0;text-align:start;text-decoration:none;text-decoration-line:none;text-decoration-style:solid;text-decoration-color:#000000;letter-spacing:normal;word-spacing:normal;text-transform:none;writing-mode:lr-tb;direction:ltr;baseline-shift:baseline;text-anchor:start;white-space:normal;shape-padding:0;clip-rule:nonzero;display:inline;overflow:visible;visibility:visible;isolation:auto;mix-blend-mode:normal;color-interpolation:sRGB;color-interpolation-filters:linearRGB;solid-color:#000000;solid-opacity:1;fill:#808080;fill-opacity:1;fill-rule:nonzero;stroke:none;stroke-width:4;stroke-linecap:butt;stroke-linejoin:round;stroke-miterlimit:4;stroke-dasharray:none;stroke-dashoffset:0;stroke-opacity:1;marker:none;color-rendering:auto;image-rendering:auto;shape-rendering:auto;text-rendering:auto;enable-background:accumulate" d="M 3 3 L 3 21 L 17 21 L 17 14 L 16 14 L 16 20 L 4 20 L 4 4 L 16 4 L 16 11 L 17 11 L 17 3 L 3 3 z M 12 9.5 C 11.049475 9.934575 10.082881 10.419844 9.0976562 10.957031 C 8.1216813 11.495519 7.1796875 12.05215 6.2734375 12.625 C 7.1796875 13.186388 8.1216813 13.736916 9.0976562 14.275391 C 10.082885 14.81258 11.049457 15.304035 12 15.75 L 12 13 L 21 13 L 21 12 L 12 12 L 12 9.5 z " />
</svg>

<svg height="24" width="24" xmlns="http://www.w3.org/2000/svg"><path style="color:#000;font-style:normal;font-variant:normal;font-weight:400;font-stretch:normal;font-size:medium;line-height:normal;font-family:sans-serif;font-variant-ligatures:none;font-variant-position:normal;font-variant-caps:normal;font-variant-numeric:normal;font-variant-alternates:normal;font-feature-settings:normal;text-indent:0;text-align:start;text-decoration:none;text-decoration-line:none;text-decoration-style:solid;text-decoration-color:#000;letter-spacing:normal;word-spacing:normal;text-transform:none;writing-mode:lr-tb;direction:ltr;baseline-shift:baseline;text-anchor:start;white-space:normal;shape-padding:0;clip-rule:nonzero;display:inline;overflow:visible;visibility:visible;isolation:auto;mix-blend-mode:normal;color-interpolation:sRGB;color-interpolation-filters:linearRGB;solid-color:#000;solid-opacity:1;fill:gray;fill-opacity:1;fill-rule:nonzero;stroke:none;stroke-width:4;stroke-linecap:butt;stroke-linejoin:round;stroke-miterlimit:4;stroke-dasharray:none;stroke-dashoffset:0;stroke-opacity:1;marker:none;color-rendering:auto;image-rendering:auto;shape-rendering:auto;text-rendering:auto;enable-background:accumulate" d="M3 3v18h14v-7h-1v6H4V4h12v7h1V3H3zm9 6.5c-.95.435-1.917.92-2.902 1.457a55.14 55.14 0 0 0-2.825 1.668 64.896 64.896 0 0 0 2.825 1.65A53.835 53.835 0 0 0 12 15.75V13h9v-1h-9V9.5z"/></svg>
